icon/ir/round-flask.svg

<svg stroke-width="1.5" viewBox="0 0 24 24" fill="none" xmlns="http://www.w3.org/2000/svg" height="1em" width="1em">
  <path d="M19 15L5 15" stroke="currentColor" stroke-linejoin="round"/>
  <path d="M16 4L8 4" stroke="currentColor" stroke-linecap="round" stroke-linejoin="round"/>
  <path d="M15 4.5V8.75309C15 9.51628 15.4449 10.1982 16.0783 10.6241C18.2866 12.1088 20 14.6173 20 17.4616C20 18.2738 19.8864 19.0585 19.6747 19.7999C19.4602 20.5507 18.7299 21 17.949 21H6.05096C5.27012 21 4.53978 20.5507 4.32535 19.7999C4.11362 19.0585 4 18.2738 4 17.4616C4 14.6173 5.7134 12.1088 7.92172 10.6241C8.55506 10.1982 9 9.51628 9 8.75309V4.5" stroke="currentColor" stroke-linecap="round" stroke-linejoin="round"/>
  <path d="M13 7.01L13.01 6.99889" stroke="currentColor" stroke-linecap="round" stroke-linejoin="round"/>
  <path d="M11 2.01L11.01 1.99889" stroke="currentColor" stroke-linecap="round" stroke-linejoin="round"/>
</svg>

<svg width="24" stroke-width="1.5" height="24" fill="none" xmlns="http://www.w3.org/2000/svg"><path d="M19 15H5" stroke="currentColor" stroke-linejoin="round"/><path d="M16 4H8M15 4.5v4.253c0 .763.445 1.445 1.078 1.871C18.287 12.11 20 14.617 20 17.462c0 .812-.114 1.596-.325 2.338-.215.75-.945 1.2-1.726 1.2H6.051c-.78 0-1.511-.45-1.726-1.2A8.505 8.505 0 0 1 4 17.462c0-2.845 1.713-5.353 3.922-6.838C8.555 10.198 9 9.516 9 8.754V4.5M13 7.01l.01-.011M11 2.01l.01-.011" stroke="currentColor" stroke-linecap="round" stroke-linejoin="round"/></svg>
